tools/download-figma-icons/icons/outlined-medium/press.svg

<svg width="24" height="24" viewBox="0 0 24 24" fill="none" xmlns="http://www.w3.org/2000/svg">
<path fill-rule="evenodd" clip-rule="evenodd" d="M22.5 19.5018C22.5 20.3285 21.8272 21.0007 21 21.0007H5.59724C5.85374 20.5593 5.99999 20.0474 5.99999 19.5018V3.01221L22.5 2.99946V19.5018ZM3 21.0008C2.9898 21.0008 2.98048 21.0036 2.97121 21.0065L2.97119 21.0065C2.96343 21.0089 2.9557 21.0113 2.9475 21.012C2.93845 21.0113 2.93038 21.0088 2.92237 21.0064L2.92235 21.0064C2.91311 21.0036 2.90395 21.0008 2.8935 21.0008C2.09925 21.0008 1.5 20.3569 1.5 19.5018V10.4936H4.5V19.5018C4.5 20.3285 3.82725 21.0008 3 21.0008ZM23.7803 1.71936C23.64 1.5792 23.4487 1.49976 23.25 1.49976H23.2493L5.24925 1.514C4.83525 1.514 4.5 1.84977 4.5 2.26349V8.99467H0.75C0.33525 8.99467 0 9.33044 0 9.74416V19.5018C0 21.1829 1.2705 22.4998 2.8935 22.4998C2.90395 22.4998 2.91311 22.497 2.92235 22.4941L2.92237 22.4941C2.93038 22.4917 2.93845 22.4892 2.9475 22.4885C2.9557 22.4892 2.96343 22.4916 2.97119 22.494L2.97121 22.494C2.98048 22.4969 2.9898 22.4998 3 22.4998H21C22.6545 22.4998 24 21.1552 24 19.5018V2.24925C24 2.05063 23.9213 1.86026 23.7803 1.71936ZM17.25 14.9906H19.5V10.4937H17.25V14.9906ZM20.25 8.99467H16.5C16.0853 8.99467 15.75 9.33044 15.75 9.74416V15.7401C15.75 16.1546 16.0853 16.4896 16.5 16.4896H20.25C20.6647 16.4896 21 16.1546 21 15.7401V9.74416C21 9.33044 20.6647 8.99467 20.25 8.99467ZM13.5 11.993H8.25C7.83525 11.993 7.5 11.6579 7.5 11.2435C7.5 10.829 7.83525 10.494 8.25 10.494H13.5C13.9148 10.494 14.25 10.829 14.25 11.2435C14.25 11.6579 13.9148 11.993 13.5 11.993ZM8.25 14.9909H13.5C13.9148 14.9909 14.25 14.6559 14.25 14.2414C14.25 13.8269 13.9148 13.4919 13.5 13.4919H8.25C7.83525 13.4919 7.5 13.8269 7.5 14.2414C7.5 14.6559 7.83525 14.9909 8.25 14.9909ZM20.25 7.49598H8.25C7.83525 7.49598 7.5 7.16096 7.5 6.74649C7.5 6.33202 7.83525 5.997 8.25 5.997H20.25C20.6647 5.997 21 6.33202 21 6.74649C21 7.16096 20.6647 7.49598 20.25 7.49598Z" fill="black"/>
</svg>

<svg width="24" height="24" viewBox="0 0 24 24" fill="none" xmlns="http://www.w3.org/2000/svg"><path fill-rule="evenodd" clip-rule="evenodd" d="M22.5 19.502c0 .826-.673 1.499-1.5 1.499H5.597c.257-.442.403-.954.403-1.5V3.013L22.5 3v16.503ZM3 21c-.01 0-.02.003-.029.005a.094.094 0 0 1-.024.006.07.07 0 0 1-.025-.006c-.009-.002-.018-.005-.029-.005C2.1 21 1.5 20.357 1.5 19.5v-9.007h3v9.008C4.5 20.328 3.827 21 3 21ZM23.78 1.719a.752.752 0 0 0-.53-.22l-18 .015a.75.75 0 0 0-.75.75v6.73H.75a.75.75 0 0 0-.75.75v9.758c0 1.68 1.27 2.998 2.893 2.998.011 0 .02-.003.03-.006.007-.002.015-.005.024-.006.009.001.016.004.024.006.01.003.019.006.029.006h18c1.654 0 3-1.345 3-2.998V2.249a.748.748 0 0 0-.22-.53Zm-6.53 13.272h2.25v-4.497h-2.25v4.497Zm3-5.996H16.5a.75.75 0 0 0-.75.75v5.995c0 .415.335.75.75.75h3.75a.75.75 0 0 0 .75-.75V9.744a.75.75 0 0 0-.75-.75Zm-6.75 2.998H8.25a.75.75 0 1 1 0-1.499h5.25a.749.749 0 1 1 0 1.499Zm-5.25 2.998h5.25a.749.749 0 1 0 0-1.5H8.25a.749.749 0 1 0 0 1.5Zm12-7.495h-12a.75.75 0 1 1 0-1.499h12a.75.75 0 1 1 0 1.499Z" fill="currentColor"/></svg>
